X:1
T:Cowboy Jack
M:3/4
L:1/2
K:C
 G/4G/4| E G/2| c G/2| B/2 A-| A A/4A/4| D D/2| A A/2| G3/2-| G G/4G/4|\
 E G/2| c G/2| B/2 A-| A A/2| B d/2| A B/2| c3/2-| c||
